X:286
T:Fr. John Angus Rankin's Stratspey
C:D.A. Beaton
R:Strathspey
M:C
%%printtempo 0
Q:120
K:D
F|\
"D"A>BA<F A2 A<f| "D"d>ef>d e>dB<d| "D"A>BA<F A2 A<f| "D"d>ef>d "A"e/e/e ::
f|\
"D"a>ba<f "A"e2 e<f| "D"d>ef<d "G"e>dB>f |1 "D" a>ba<f "A"e2 e<f| "D"d>BA>F "A"A/A/A A:|2
"D"a>ba<f "A7"e>gf<e| "D"d>BA>F "A"A/A/A A|]
